X:1
T:Wer will doch einen Reinen finden
T:Georg Böhm 1661 - 1733
T:Source: Denkmäler Deutscher Tonkunst- erste Folge, 44.Band, nr. XXIX. Verlag von Breitkopf & Härtel, Leipzig, 1911. Original in b.
T:Wer will doch einen Reinen finden
T:Wim Looyestijn - 2018. May be freely copied for non-commercial use.
T:Wim Looyestijn - 2018. May be freely copied for non-commercial use.
T:Wim Looyestijn - 2018. May be freely copied for non-commercial use.
C:Georg Böhm
C:1661 - 1733
Z:Wim Looyestijn - 2018. May be freely copied for non-commercial use.
%%score 1 { ( 2 4 ) | 3 }
L:1/8
Q:1/4=60
M:2/2
K:C
V:1 treble nm="MusicXML Part"
V:2 treble nm="MusicXML Part"
V:4 treble 
V:3 bass 
V:1
 E | AECF F/E/A/B/ ^GE | z2 z B c/B/B d2- | d/c/c/B/ B>A A3 E | AECF F/E/A/B/ ^GE | %5
w: 1. Wer|will doch ei- nen Rei- * nen * fin- den|bei de- * nen, wo|* * ist * kei- ner rein. Durchs|Sün- den- ü- bel muß * ver- * schwin- den|
w: 2. Doch,|sü- ßer Je- su! du * bist * Ei- ner,|Durch Ad- * ams Sün-|* * de * nicht be- fleckt, Du|Gott und Mensch, du bist * ein * Rei- ner,|
 z2 z B c/B/B d2- | d/c/c/B/ B>A A3 c | FE AA/G/ F/G/F/E/ Ez/G/ | ^GA A/B/A/G/ G>^FE z | %9
w: für Gott * der Fromm-|* * heit * Ruhm und Schein. Kein|Fleisch ist ja für * ihm * ge- * recht, und|son- der Arg * kein * Mut- ter- kind;|
w: Den Er- be und eig-|* * ne * Schuld nicht schreckt, O|Wei- bes Sam‘, und * Got- * tes * Kraft, Em-|pfang- en durch * den * heil’- gen Geist,|
 z2 z B cdef | ^GA/B/ Bc df/e/ ed/c/ | BA/B/ B>A A3 x |] %12
w: der Mensch, die Mad' und|Wurm- ge- * schlecht, wird hin- ge- * führt durch *|Sün- * * * den- wind.|
w: Du Öl- baum vol- ler|Le- ben- * ssaft, Du Na- za- * rä- er, *|rein * * * ge- preist.|
V:2
 z |"^Instrument change" z"^Instrument change" ^GAF F/E/D E^F/=G/ | %2
"^Instrument change" A"^Instrument change"d [EB]2 z =GAF | %3
"^Instrument change" E"^Instrument change"C/D/ B,E A,3 z | %4
"^Instrument change" z"^Instrument change" ^GAF F/E/D E^F/=G/ | %5
"^Instrument change" A"^Instrument change"d [EB]2 z =GAF | %6
"^Instrument change" E"^Instrument change"C/D/ B,E A,3 [EAc] | %7
"^Instrument change" d"^Instrument change"G A/B/c cB cG/e/ | %8
"^Instrument change" d"^Instrument change"c B/d/c B2 Be- |"^Instrument change" e>d cB cB A=G/F/ | %10
"^Instrument change" E"^Instrument change"D E/D/C [DA][FA][E^G][EA] | %11
"^Instrument change" [^GB]"^Instrument change"A AG/A/ [CEA]3 x |] %12
V:3
 z | z E,A,A,, G,,F,,E,,E, | C,F,E,E,, z E,F,D, | E,A,, E,,2 A,,3 z | z E,A,A,, G,,F,,E,,E, | %5
w: |x * 6 6 6 x *|6 6 x * x 6 *|x * 4``````x *|x * 6 6 6 x *|
 C,F,E,E,, z E,F,D, | E,A,, E,,2 A,,3 A, | B,CF,E, D,G,,C,,C, | B,,A,,^G,,A,, B,,B,^G,E, | %9
w: 6 6 x * x 6 *|x * 4``````x * *|5 * * 6 7 7 * *|5 * 6 * * x * *|
 ^F,^G,A,E, A,,B,,C,D, | E,F,^G,,A,, F,,D,,E,,A,, | E,C,/A,,/ E,E,, A,,3 z |] %12
w: * * * x * * * *|x 6 6 * 6 * x *|x * * 4 x *|
V:4
 x | x [B,E][CE]C B,A,[^G,B,][B,E] | [CE][DA]A^G x [B,E] [A,D]2 | [^G,B,]A,A,=G, A,3 x | %4
 x [B,E][CE]C B,A,[^G,B,][B,E] | [CE][DA]A^G x [B,E] [A,D]2 | [^G,B,]A,A,=G, A,3 x | %7
 [DF]E[CF][CG] [DF][DF]EE | [E^G][EA][EB][EA] G^F/^D/ E[EG] | %9
 [EA]"^Instrument change"B[EA]^G [EA][DG][CE][A,D] | [^G,B,]A,B,A, A,D/C/ B,C | %11
 EE/C/ [B,E][DE] x4 |] %12

